X: 30414
M: 2/4
L: 1/16
K: Bb
|: fg |\
df Bd FB DB | dB FD Ec DB | CFAc ec AF | Bb fd c2fb |\
df Bd FB DB | dB FD Ec DB | CF Ac ecAc | B2B2B2 :|


